X:1
T:Title
%%score [ 1 2 ]
L:1/8
Q:1/4=120
M:2/2
K:Bb
V:1 treble nm="S" snm="S"
V:2 bass nm="B" snm="B"
V:1
|:"^Fain would I wed a fair young man" (GA) B2 B2 B2 | (AB) c2 c2 c2 | %2
w: Fain * would I wed|a * fair young man,|
w: When * my mind or|bo\- * dy grie- ved,|
 (Bc)de d2"^Thomas Campion\n(1567-1620)" (cB) | A4 A4 ::[M:2/2] (de) f2 (Bc) d2 | %5
w: that * day and night could *|please me:|Maids * are full * of|
w: that * had the power to *|ease me.|And * that oft * I|
 (cB) (AG) (^FE) D2 | (DE) (FG) (AB) (cB) | (A3 G) G4 :: d3 d B2 G2 | c3 c A2 F2 | %10
w: long\- * ing * thoughts * that|breed * a * blood\- * less *|sick\- * ness:|Oft I have been|woo'd and prayed, but|
w: hear * men * say, * is|on\- * ly * cur'd * by *|quick\- * ness.|Ma- ny for a|day or so I|
 (Bc) d2 (GA) (Bc) | A4 A4 :: d2 B2 d3 d | c3 B A2 D2 | F3 G A2 B2 | A4 G4 :: (GA) (Bc) d2 d2 | %17
w: ne- * ver could * be *|mo- ved:|But this fool- ish|mind of mine straight|loathes the thing re-|solv- ed.|Sure * I * think I|
w: have * most dear\- * ly *|lov- ed;|If to love be|sin in me, that|sin is soon ab-|solv- ed.|When * I * once am|
 (FG) (AB) c3 c | (dc) (BA) (GB) (AG) | ^F4 D4 :: (fe) (dc) (dc) B2 | (ed) (cB) (AG) A2 | %22
w: shall * at * last fly|to * some * ho\- * ly *|or- der;|Yet * I * would * not|die * a * maid * be-|
w: set\- * tled * there, then|can * I * fly * no *|far- ther.|As * I * was * by|one * brought * forth, * I|
 (Bc) (de) (cd) (Bc) | A4 !fermata!G4 :| %24
w: cause * I * had * a *|mo- ther;|
w: would * bring * forth * an\- *|o- ther.|
V:2
|: G,4 G,4 | F,4 F,4 | G,4 G,,4 | D,4 D,4 ::[M:2/2] B,,4 B,,4 | C,4 D,4 | B,,4 A,,2 G,,2 | %7
 D,4 G,,4 :: G,4 G,4 | F,4 F,4 | G,4 G,,4 | D,4 D,4 :: B,,4 B,,4 | C,4 D,4 | B,,4 A,,2 G,,2 | %15
 D,4 G,,4 :: G,4 G,4 | F,4 F,4 | G,4 G,,4 | D,4 D,4 :: B,,4 B,,4 | C,4 D,4 | B,,4 A,,2 G,,2 | %23
 D,4 G,,4 :| %24

